X: 19139
T: Irish Washerwoman, The
R: jig
M: 6/8
K: Dmajor
|:F3 D3|FDF AGF|G3 E3|GEG BAG|
F3 D3|FDF AGF|GFG EAG|FDD D3:|
|:d3 dAd|dAd fed|c3 cAc|cAc edc|
Bdd Add|Gdd F2F|GFG EAG|1 FDD D2A:|2 FDD D2E||

